assets/Rice cracker/Flat/rice_cracker_flat.svg

<svg width="32" height="32" viewBox="0 0 32 32" fill="none" xmlns="http://www.w3.org/2000/svg">
<path d="M28.7531 17.0131C28.7531 15.8431 29.2331 14.6231 28.9431 13.5531C28.6431 12.4331 27.6131 11.6231 27.0531 10.6431C26.4831 9.65312 26.2831 8.35312 25.4831 7.55312C24.6831 6.75312 23.3831 6.55312 22.3931 5.98312C21.4131 5.41312 20.6031 4.38312 19.4831 4.09312C18.4031 3.80312 17.1831 4.28312 16.0231 4.28312C14.8531 4.28312 13.6331 3.80312 12.5631 4.09312C11.4431 4.39312 10.6331 5.42312 9.65312 5.98312C8.65312 6.55312 7.35312 6.75312 6.55312 7.55312C5.75312 8.35312 5.55312 9.65312 4.98312 10.6431C4.41312 11.6231 3.38312 12.4331 3.09312 13.5531C2.80312 14.6331 3.28312 15.8531 3.28312 17.0131C3.28312 18.1831 2.80312 19.4031 3.09312 20.4731C3.39312 21.5931 4.42312 22.4031 4.98312 23.3831C5.55312 24.3731 5.75312 25.6731 6.55312 26.4731C7.35312 27.2731 8.65312 27.4731 9.64312 28.0431C10.6231 28.6131 11.4331 27.6431 12.5531 27.9331C13.6331 28.2231 14.8531 27.7431 16.0131 27.7431C17.1831 27.7431 18.4031 28.2231 19.4731 27.9331C20.5931 27.6331 21.4031 28.6031 22.3831 28.0431C23.3731 27.4731 24.6731 27.2731 25.4731 26.4731C26.2731 25.6731 26.4731 24.3731 27.0431 23.3831C27.6131 22.4031 28.6431 21.5931 28.9331 20.4731C29.2331 19.4031 28.7531 18.1831 28.7531 17.0131Z" fill="#F3AD61"/>
<path d="M13.5431 8.3931L15.1131 7.0531C15.4531 6.7631 15.9731 6.8031 16.2731 7.1531C16.5731 7.5031 16.5331 8.0231 16.1831 8.3131L14.6131 9.6431C14.2631 9.9431 13.7431 9.9031 13.4531 9.5531C13.1531 9.2031 13.1931 8.6831 13.5431 8.3931Z" fill="#FFDEA7"/>
<path d="M20.2731 11.2331V9.17315C20.2731 8.72315 20.6431 8.35315 21.0931 8.35315C21.5431 8.35315 21.9131 8.72315 21.9131 9.17315V11.2331C21.9131 11.6831 21.5431 12.0531 21.0931 12.0531C20.6431 12.0531 20.2731 11.6831 20.2731 11.2331Z" fill="#FFDEA7"/>
<path d="M11.8731 13.7631L12.7131 15.6431C12.9031 16.0631 13.3831 16.2431 13.8031 16.0631C14.2231 15.8731 14.4031 15.3931 14.2231 14.9731L13.3831 13.0931C13.1931 12.6731 12.7031 12.4931 12.2931 12.6831C11.8731 12.8631 11.6931 13.3531 11.8731 13.7631Z" fill="#FFDEA7"/>
<path d="M7.5831 14.5031L5.7531 15.4531C5.3531 15.6631 5.1931 16.1631 5.4031 16.5631C5.6131 16.9631 6.1131 17.1231 6.5131 16.9131L8.3431 15.9631C8.7431 15.7531 8.9031 15.2531 8.6931 14.8531C8.4831 14.4531 7.9831 14.2931 7.5831 14.5031Z" fill="#FFDEA7"/>
<path d="M8.51309 9.66313L7.29309 11.3231C7.02309 11.6931 7.09309 12.2031 7.46309 12.4731C7.83309 12.7431 8.34309 12.6631 8.61309 12.3031L9.83309 10.6431C10.1131 10.2831 10.0331 9.76312 9.66309 9.49312C9.30309 9.22312 8.78309 9.30312 8.51309 9.66313Z" fill="#FFDEA7"/>
<path d="M24.5131 15.3331L25.8431 16.9031C26.1331 17.2531 26.6531 17.2931 27.0031 16.9931C27.3531 16.7031 27.3931 16.1831 27.0931 15.8331L25.7631 14.2631C25.4731 13.9131 24.9531 13.8731 24.6031 14.1731C24.2631 14.4731 24.2131 14.9931 24.5131 15.3331Z" fill="#FFDEA7"/>
<path d="M26.8231 21.2031L25.3131 22.6031C24.9731 22.9131 24.4531 22.8931 24.1531 22.5631C23.8431 22.2331 23.8631 21.7131 24.1931 21.4031L25.7031 20.0031C26.0331 19.6931 26.5531 19.7131 26.8631 20.0431C27.1731 20.3731 27.1531 20.8931 26.8231 21.2031Z" fill="#FFDEA7"/>
<path d="M8.16309 21.9831L7.13309 20.2031C6.90309 19.8131 6.40309 19.6731 6.00309 19.9031C5.61309 20.1331 5.47309 20.6331 5.70309 21.0331L6.73309 22.8131C6.96309 23.2031 7.46309 23.3431 7.86309 23.1131C8.26309 22.8831 8.39309 22.3831 8.16309 21.9831Z" fill="#FFDEA7"/>
<path d="M18.7131 13.9131L20.6031 14.7231C21.0231 14.9031 21.2131 15.3831 21.0331 15.8031C20.8531 16.2231 20.3731 16.4131 19.9531 16.2331L18.0631 15.4231C17.6431 15.2431 17.4531 14.7631 17.6331 14.3431C17.8131 13.9231 18.2931 13.7331 18.7131 13.9131Z" fill="#FFDEA7"/>
<path d="M9 19C9 18.4477 9.44772 18 10 18H22C22.5523 18 23 18.4477 23 19V27C23 28.6569 21.6569 30 20 30H12C10.3431 30 9 28.6569 9 27V19Z" fill="#533566"/>
</svg>

<svg xmlns="http://www.w3.org/2000/svg" width="32" height="32" fill="none"><path fill="#F3AD61" d="M28.753 17.013c0-1.17.48-2.39.19-3.46-.3-1.12-1.33-1.93-1.89-2.91-.57-.99-.77-2.29-1.57-3.09-.8-.8-2.1-1-3.09-1.57-.98-.57-1.79-1.6-2.91-1.89-1.08-.29-2.3.19-3.46.19-1.17 0-2.39-.48-3.46-.19-1.12.3-1.93 1.33-2.91 1.89-1 .57-2.3.77-3.1 1.57-.8.8-1 2.1-1.57 3.09-.57.98-1.6 1.79-1.89 2.91-.29 1.08.19 2.3.19 3.46 0 1.17-.48 2.39-.19 3.46.3 1.12 1.33 1.93 1.89 2.91.57.99.77 2.29 1.57 3.09.8.8 2.1 1 3.09 1.57.98.57 1.79-.4 2.91-.11 1.08.29 2.3-.19 3.46-.19 1.17 0 2.39.48 3.46.19 1.12-.3 1.93.67 2.91.11.99-.57 2.29-.77 3.09-1.57.8-.8 1-2.1 1.57-3.09.57-.98 1.6-1.79 1.89-2.91.3-1.07-.18-2.29-.18-3.46Z"/><path fill="#FFDEA7" d="m13.543 8.393 1.57-1.34c.34-.29.86-.25 1.16.1.3.35.26.87-.09 1.16l-1.57 1.33c-.35.3-.87.26-1.16-.09-.3-.35-.26-.87.09-1.16ZM20.273 11.233v-2.06c0-.45.37-.82.82-.82.45 0 .82.37.82.82v2.06c0 .45-.37.82-.82.82-.45 0-.82-.37-.82-.82ZM11.873 13.763l.84 1.88c.19.42.67.6 1.09.42.42-.19.6-.67.42-1.09l-.84-1.88a.819.819 0 0 0-1.09-.41c-.42.18-.6.67-.42 1.08ZM7.583 14.503l-1.83.95c-.4.21-.56.71-.35 1.11.21.4.71.56 1.11.35l1.83-.95c.4-.21.56-.71.35-1.11a.827.827 0 0 0-1.11-.35ZM8.513 9.663l-1.22 1.66c-.27.37-.2.88.17 1.15.37.27.88.19 1.15-.17l1.22-1.66a.81.81 0 0 0-.17-1.15.827.827 0 0 0-1.15.17ZM24.513 15.333l1.33 1.57c.29.35.81.39 1.16.09.35-.29.39-.81.09-1.16l-1.33-1.57a.814.814 0 0 0-1.16-.09c-.34.3-.39.82-.09 1.16ZM26.823 21.203l-1.51 1.4a.82.82 0 1 1-1.12-1.2l1.51-1.4a.821.821 0 0 1 1.12 1.2ZM8.163 21.983l-1.03-1.78a.83.83 0 0 0-1.13-.3.83.83 0 0 0-.3 1.13l1.03 1.78c.23.39.73.53 1.13.3.4-.23.53-.73.3-1.13ZM18.713 13.913l1.89.81c.42.18.61.66.43 1.08-.18.42-.66.61-1.08.43l-1.89-.81a.818.818 0 0 1-.43-1.08c.18-.42.66-.61 1.08-.43Z"/><path fill="#533566" d="M9 19a1 1 0 0 1 1-1h12a1 1 0 0 1 1 1v8a3 3 0 0 1-3 3h-8a3 3 0 0 1-3-3v-8Z"/></svg>
